pro/src/icons/stroke-new.svg

<svg width="48" height="48" viewBox="0 0 48 48" fill="none" xmlns="http://www.w3.org/2000/svg">
<path id="icon" fill-rule="evenodd" clip-rule="evenodd" d="M18.7423 15.9475L23.0721 5.62008L25.7635 7.6606L29.2379 15.9475L29.2391 15.9503C29.6696 16.9683 30.6253 17.6847 31.745 17.7776L31.7486 17.7779L33.8023 17.9589C34.3525 18.0074 34.8378 17.6006 34.8862 17.0504C34.9347 16.5001 34.528 16.0148 33.9779 15.9663L31.9179 15.7847L31.9116 15.7842C31.5532 15.7549 31.2308 15.524 31.0816 15.1722L31.0811 15.1711L28.9429 10.071L39.0634 17.744C39.1685 18.1395 39.5117 18.4456 39.9429 18.4834L40.0511 18.4929L43.0797 20.7891L34.992 27.8584L34.9885 27.8616C34.1596 28.593 33.7807 29.7217 34.0361 30.815L34.0364 30.8163L36.5557 41.736C36.7625 42.6333 35.8014 43.2897 35.0694 42.845L25.5496 37.0559L25.5438 37.0524C24.5875 36.4798 23.4027 36.4798 22.4464 37.0524L22.4406 37.0559L12.9206 42.8451C12.1861 43.2913 11.2281 42.6395 11.4348 41.7346L13.9538 30.8163L13.9541 30.8147C14.2078 29.7282 13.8359 28.5841 12.9962 27.8568L12.994 27.8549L4.59772 20.5157C3.91596 19.9205 4.29377 18.8106 5.16631 18.7356L16.2316 17.7779L16.2342 17.7777C17.3544 17.6851 18.3105 16.9686 18.7411 15.9503L18.7423 15.9475ZM43.0805 20.7884L43.0797 20.7891L44.7073 22.023L36.3117 29.3615L36.31 29.363C36.0204 29.6197 35.9 30.0024 35.9838 30.3603L35.9845 30.3635L38.5045 41.2862C39.0976 43.8583 36.3187 45.9451 34.0308 44.5544L24.5164 38.7686L24.5139 38.7672C24.1915 38.5753 23.7987 38.5753 23.4763 38.7672L23.4738 38.7686L13.9596 44.5543C11.6743 45.9433 8.89294 43.8718 9.48538 41.2876L12.0057 30.3635L12.0064 30.3603C12.0917 29.9959 11.9645 29.6088 11.6862 29.3682L11.682 29.3646L3.28246 22.0226C1.28495 20.278 2.34703 16.9707 4.99387 16.7427L16.0639 15.7846L16.0686 15.7842C16.4269 15.7549 16.7494 15.524 16.8986 15.1722L16.8991 15.1711L21.2279 4.84619C22.2581 2.39157 25.7289 2.37691 26.7532 4.8484L26.7541 4.85062L28.9426 10.0705L25.7634 7.66034L24.9079 5.61973L24.906 5.6153C24.5693 4.8012 23.4218 4.78785 23.0721 5.62008L25.7634 7.66034L25.7635 7.6606L28.9429 10.071L28.9426 10.0705L39.063 17.7427C39.0632 17.7432 39.0633 17.7436 39.0634 17.744L40.0511 18.4929L40.0527 18.493L43.0805 20.7884ZM43.0805 20.7884L43.3929 20.5153C44.0688 19.9259 43.6906 18.8101 42.8245 18.7357L40.0527 18.493L39.063 17.7427C39.0343 17.6339 39.0235 17.5184 39.0339 17.3998C39.0821 16.8496 39.5671 16.4425 40.1173 16.4907L42.9957 16.7427C45.6486 16.9714 46.6909 20.2919 44.7081 22.0223L43.0805 20.7884ZM6.70711 5.27683C6.31658 4.88624 5.68342 4.88624 5.29289 5.27683C4.90237 5.66741 4.90237 6.30068 5.29289 6.69127L10.2929 11.6921C10.6834 12.0827 11.3166 12.0827 11.7071 11.6921C12.0976 11.3015 12.0976 10.6682 11.7071 10.2776L6.70711 5.27683ZM42.7071 6.69127C43.0976 6.30068 43.0976 5.66741 42.7071 5.27683C42.3166 4.88624 41.6834 4.88624 41.2929 5.27683L36.2929 10.2776C35.9024 10.6682 35.9024 11.3015 36.2929 11.6921C36.6834 12.0827 37.3166 12.0827 37.7071 11.6921L42.7071 6.69127ZM41.7071 32.2812C41.3166 31.8906 40.6834 31.8906 40.2929 32.2812C39.9024 32.6718 39.9024 33.3051 40.2929 33.6956L44.2929 37.6963C44.6834 38.0869 45.3166 38.0869 45.7071 37.6963C46.0976 37.3057 46.0976 36.6724 45.7071 36.2819L41.7071 32.2812ZM7.70711 34.6958C8.09763 34.3052 8.09763 33.672 7.70711 33.2814C7.31658 32.8908 6.68342 32.8908 6.29289 33.2814L2.29289 37.282C1.90237 37.6726 1.90237 38.3059 2.29289 38.6965C2.68342 39.087 3.31658 39.087 3.70711 38.6965L7.70711 34.6958Z" fill="currentColor"/>
</svg>

<svg xmlns="http://www.w3.org/2000/svg" width="48" height="48" fill="none"><path id="icon" fill="currentColor" fill-rule="evenodd" d="m18.742 15.948 4.33-10.328 2.692 2.04 3.474 8.287.001.003a3 3 0 0 0 2.506 1.828h.004l2.053.18a1 1 0 0 0 .176-1.992l-2.06-.181h-.006a1 1 0 0 1-.83-.613l-2.14-5.101 10.121 7.673a1 1 0 0 0 .88.74l.108.009 3.029 2.296-8.088 7.07-.003.003a3.02 3.02 0 0 0-.953 2.953v.001l2.52 10.92c.207.897-.755 1.554-1.487 1.109l-9.52-5.79-.005-.003a3.01 3.01 0 0 0-3.098 0l-.005.004-9.52 5.79c-.735.445-1.693-.206-1.486-1.111l2.519-10.919v-.001a3.02 3.02 0 0 0-.958-2.958l-.002-.002-8.396-7.34c-.682-.594-.304-1.704.568-1.78l11.066-.957h.002a3 3 0 0 0 2.507-1.828zm24.339 4.84-.001.001 1.627 1.234-8.395 7.339-.002.001c-.29.257-.41.64-.326.997v.003l2.52 10.923c.594 2.572-2.185 4.66-4.473 3.268l-9.515-5.785-.002-.002a1.01 1.01 0 0 0-1.038 0l-.002.002-9.514 5.785c-2.286 1.39-5.067-.682-4.475-3.266l2.52-10.924.001-.004a1.01 1.01 0 0 0-.32-.992l-.004-.003-8.4-7.342c-1.997-1.745-.935-5.052 1.712-5.28l11.07-.958h.005c.358-.03.68-.261.83-.613l4.329-10.326c1.03-2.454 4.5-2.47 5.525.002l.001.003 2.189 5.22-3.18-2.41-.855-2.041-.002-.005a.99.99 0 0 0-1.834.005l2.691 2.04 3.18 2.411 10.12 7.672v.001l.988.749h.002zm0 0 .312-.273c.676-.59.298-1.705-.569-1.78l-2.771-.242-.99-.75a1 1 0 0 1 1.054-1.252l2.879.252c2.653.228 3.695 3.549 1.712 5.28zM6.706 5.277A1 1 0 1 0 5.293 6.69l5 5.001a1 1 0 1 0 1.414-1.414zm36 1.414a1 1 0 0 0-1.414-1.414l-5 5a1 1 0 0 0 1.414 1.415zm-1 25.59a1 1 0 1 0-1.414 1.415l4 4a1 1 0 1 0 1.414-1.414zm-34 2.415a1 1 0 0 0-1.414-1.415l-4 4.001a1 1 0 0 0 1.414 1.415z" clip-rule="evenodd"/></svg>
